X:1
T:Title
%%score ( 1 2 ) { 3 | 4 }
L:1/8
Q:1/4=107
M:4/4
K:G
V:1 treble nm="Grand Piano, Soprano"
V:2 treble 
V:3 bass nm="Choir Pad, Dili, Hubert P. Main"
V:4 bass 
V:1
 z4 .E2 G2 | [DA]2 [Fd]2 [GB][DA] [DG]2 | [Fc]2 [GB]2 [DA]2 [^CG]2 | [DF]2 [^CE]2 D4 | z4 .E2 G2 | %5
 [DA]2 [Fd]2 [GB][DA] [DG]2 | [DB]2 [F^c]2 [Ad]2 [Ge]2 | [Fd]2 [E^c]2 [Fd]4 | %8
 [Fd]2 [DF]2 D-[DA] [GB]2 | [Ac]2 [GB]2 [GB]2 [FA]2 | [DA]2 [Ad]2 [GB]2 [EG]2 | [DF]2 [^CE]2 D4 | %12
 z4 .E2 G2 | [DA]2 [Fd]2 [GB][DA] [DG]2 | [Ge]2 [FA]2 [Gd]2 G[Ac] | [GB]2 [DA]2 [DG]4- | %16
 [DG]4 z4 |] %17
V:2
 [B,D]2 D2 C-[CF]B,^C | x8 | x8 | x8 | [B,D]2 D2 C-[CF]B,^C | x8 | x8 | x8 | z4 .G2 z2 | x8 | x8 | %11
 x8 | [B,D]2 D2 C-[CF]B,^C | x8 | x8 | x8 | x8 |] %17
V:3
 G,2 G,2 G,2 G,2 | D2[K:treble] D2 DC B,2 | D2 D2 D2[K:bass] A,2 | A,2 A,G, F,4 | G,2 G,2 G,2 G,2 | %5
 D2 D2 DC B,2 | G,2 A,2 D2 B,2 | A,2 A,2 A,4 | A,2 C2 B,A, G,2 | D2 D2 D2 D2 | %10
 D2 D2 D2[K:bass] B,2 | A,2 A,G, F,4 | G,2 G,2 G,2 G,2 | D2 D2 DC B,2 | C2 D2 C2 B,E | D2 C2 B,4- | %16
 B,4 z4 |] %17
V:4
 G,,2 B,,2 C,2 E,2 | F,2 D,2 G,2 G,2 | A,2 G,2 F,2 E,2 | D,2 A,,2 D,4 | G,,2 B,,2 C,2 E,2 | %5
 F,2 D,2 G,2 G,2 | z2 E,2 F,2 G,2 | z2 A,,2 D,4 | D,2 D,2 D,2 D,2 | F,2 G,2 D,2 D,2 | %10
 D,2 F,2 G,2 G,2 | z2 A,,2 D,4 | G,,2 B,,2 C,2 E,2 | F,2 D,2 G,2 G,2 | C,2 C,2 C,2 E,C, | %15
 D,2 D,2 G,,4- | G,,4 z4 |] %17

